!!!COM: Corelli, Arcangelo
!!!OTL: 
!!!ONM: Opus 5, No. 2
!!!OMV: 1
!!!CDT: 1653/2/17/-1713/1/8/
!!!OCY: Italia
**kern	**kern
*clefC	*clefG
*k[b-]	*k[b-]
*F:	*F:
*M4/4	*M4/4
=1	=1
2.r	4r
.	4ff
.	4dd
4F	4a
=2	=2
4D	4b-
4AA	4cc
4.BB-	8dd
.	8b-
.	[4ff
8AA	.
=3	=3
4GG	4ff]
4C	4ee
2FF	2ff
=4	=4
2.r	4r
.	4ccc
.	4aa
4c	4ee
=5	=5
4A	4ff
4E	4gg
4.F	8aa
.	8ff
.	[4ccc
8E	.
=6	=6
4D	4ccc]
4G	4bb
4C	4ccc
[4c	8r
.	8cc
=7	=7
8c]	4.dd
8F	.
4.B-	.
.	8ee
.	8ff
16A	8cc
16G	.
8A	[4ff
8F	.
=8	=8
4.G	8ff]
.	8b-
.	4.ee-
8A	.
8B-	.
8F	16dd
.	16cc
8B-	[4dd
8D	.
=9	=9
4.E	8dd]
.	16cc
.	16b-
.	4.cc
8F#	.
8G	.
8D	16b-
.	16a
8G	8b-
8BB-	8dd
=10	=10
8C	16ee-
.	16f#
8GG	16g
.	16a
8D	4a
8DD	.
4.GG	8g
.	8a
.	[4b-
8D	.
=11	=11
[4E-	16b-]
.	16g
.	16a
.	16b-
16E-]	[4cc
16C	.
16D	.
16E-	.
[4F	16cc]
.	16a
.	16b-
.	16cc
16F]	[4dd
16D	.
16E	.
16F	.
=12	=12
[4G	16dd]
.	16b-
.	16cc
.	16dd
16G]	4.ee-
16F	.
16G	.
16A	.
8B-	.
8F	16dd
.	16cc
[4B-	8dd
.	16cc
.	16b-
=13	=13
8B-]	8cc
8A-	4ff
8G	.
4c	8ee-
.	8dd
8B-	4gg
8A	.
[8d	8ff
=14	=14
8d]	8ee
8c	4aa
8B-	.
8G	4gg
8C#	.
8D	8ff
8GG	4ee
8AA	.
=15	=15
4.D	8dd
.	16dd
.	16ee
.	4.ff
16d	.
16c	.
8B	.
8d	4ee-
8F	.
8G	8dd
=16	=16
4.C	8ee-
.	16cc
.	16dd
.	4.ee-
16c	.
16B-	.
8A	.
8B-	4dd
8E-	.
8E	16cc
.	16b-
=17	=17
4F	8a
.	8f
4.f	8r
.	8ff
.	4.gg
16e-	.
16d	.
[4e-	.
.	16ccc
.	16bb-
=18	=18
8e-]	8aa
16d	8ff
16c	.
8d	8r
8B-	16bb-
.	16ff
8e-	16gg
.	16ff
8c	16ee-
.	16dd
8f	4cc
8F	.
=19	=19
8B-	4b-
8c	.
8d	4.ff
8F	.
4.G	.
.	16ee-
.	16dd
.	[4ee-
16c	.
16B-	.
=20	=20
8A	8ee-]
8F	16dd
.	16cc
8B-	8dd
8D	8ff
4E-	8g
.	8a
8D	[4b-
8E-	.
=21	=21
4F	4b-]
4FF	4a
2BB-	2b-
==	==
*-	*-
!!!RWG: This file only contains pitch and duration data.
!!!RWG: Transposing instruments are not transposed.
!!!RWG: Durations of rests and tied notes may be interpreted.
!!!RWG: Key is interpreted using the Humdrum key tool.
!!!SCA: 
!!!YOR: 
!!!AGN: violin
!!!AFT: stage1
!!!ENC: F. Bennion
!!!END: 1997/04/15
!!!AST: baroque
!!!YEC: Copyright 1994, Center for Computer Assisted Research in the Humanities
!!!YEM: Rights to all derivative electronic formats reserved.
!!!YEM: Refer to licensing agreement for further details.
!!!YEN: United States of America
!!!EED: W.B. Hewlett
!!!KEY: 1648122406
!!!EMD: Converted from MuseData to Humdrum Aug 9, 1999, by Bret Aarden using muse2kern.
!!!VTS: 577946885
